data-matrix.svg

<svg fill="currentColor" viewBox="0 0 24 24"><path d="M2 2v20h20v-2h-2v-2h2v-2h-2v-2h2v-2h-4v-2h-2v2h-2v-2h-2V8H8v4h4v4h-2v2h2v2h-2v-2H8v-2H6v-2H4v-2h2V6H4V2zm4 4h2V2H6zm2 10h2v-2H8zm10-6h4V8h-4zm0-2V4h-2v2h-2v2zm-2-4V2h-2v2zm2 0h2V2h-2zm2 0v2h2V4zM10 2v4h2V2zm4 12h2v2h2v4h-4zM4 18h2v2H4z"/></svg>

<svg  viewBox="0 0 24 24" fill="currentColor"><path  d="M2 2V22H22V20H20V18H22V16H20V14H22V12H18V10H16V12H14V10H12V8H8V12H12V16H10V18H12V20H10V18H8V16H6V14H4V12H6V6H4V2H2M6 6H8V2H6V6M8 16H10V14H8V16M18 10H22V8H18V10M18 8V4H16V6H14V8H18M16 4V2H14V4H16M18 4H20V2H18V4M20 4V6H22V4H20M10 2V6H12V2H10M14 14H16V16H18V20H14V14M4 18H6V20H4V18Z"/></svg>
